src/images/logos/twitter-logo.svg

<svg width="25px" height="20px" viewBox="0 0 25 20">
    <path d="M7.8437633,20 C17.2839506,20 22.4457216,12.3036649 22.4457216,5.63350785 C22.4457216,5.41361257 22.4457216,5.19371728
    22.4350788,4.98429319 C23.4355045,4.27225131 24.3082163,3.38219895 25,2.36649215 C24.0847169,2.76439791 23.094934,3.03664921
    22.051937,3.16230366 C23.1162197,2.53403141 23.9250745,1.54973822 24.3082163,0.366492147 C23.3184334,0.942408377 22.2222222,1.36125654
    21.0515113,1.59162304 C20.1149425,0.607329843 18.7845892,0 17.3052363,0 C14.4742444,0 12.1753938,2.2617801 12.1753938,5.04712042
    C12.1753938,5.44502618 12.2179651,5.83246073 12.3137505,6.19895288 C8.04597701,5.9895288 4.26777352,3.97905759 1.73478076,0.921465969
    C1.29842486,1.66492147 1.04299702,2.53403141 1.04299702,3.45549738 C1.04299702,5.20418848 1.94763729,6.7539267 3.33120477,7.65445026
    C2.49042146,7.63350785 1.70285228,7.40314136 1.01106854,7.02617801 C1.01106854,7.04712042 1.01106854,7.06806283 1.01106854,7.08900524
    C1.01106854,9.53926702 2.77777778,11.5706806 5.12984249,12.0418848 C4.70412942,12.1570681 4.24648787,12.2198953 3.77820349,12.2198953
    C3.44827586,12.2198953 3.12899106,12.1884817 2.80970626,12.1256545 C3.45891869,14.1361257 5.35334185,15.591623 7.59897829,15.6335079
    C5.84291188,16.9842932 3.62920392,17.7905759 1.22392507,17.7905759 C0.808854832,17.7905759 0.404427416,17.7696335 0,17.7172775
    C2.24563644,19.1623037 4.94891443,20 7.8437633,20" fill="#000" fill-rule="nonzero" stroke-width="0"></path>
</svg>

<svg viewBox="0 0 25 20">
  <path
    d="M7.844 20c9.44 0 14.602-7.696 14.602-14.366 0-.22 0-.44-.01-.65 1-.712 1.872-1.602 2.564-2.618a10.55 10.55 0 01-2.948.796A5.062 5.062 0 0024.308.366c-.99.576-2.086.995-3.256 1.226A5.147 5.147 0 0017.305 0c-2.83 0-5.13 2.262-5.13 5.047 0 .398.043.785.139 1.152A14.639 14.639 0 011.734.921a5.003 5.003 0 00-.691 2.534c0 1.75.905 3.299 2.288 4.2a5.104 5.104 0 01-2.32-.629v.063c0 2.45 1.767 4.482 4.119 4.953a5.195 5.195 0 01-2.32.084c.649 2.01 2.543 3.466 4.789 3.508a10.424 10.424 0 01-6.375 2.157c-.415 0-.82-.021-1.224-.074A14.468 14.468 0 007.844 20" />
</svg>
